icons/linear-new-people-setting-gear.svg

<svg xmlns="http://www.w3.org/2000/svg" width="32px" height="32px" viewBox="0 0 32 32" version="1.1">
    <title>linear-new-people-setting-gear</title>
    <g id="linear-new-people-setting-gear" stroke-width="1" fill-rule="evenodd">
        <path d="M23.5,16.1339746 L28.6961524,19.1339746 C29.0055535,19.3126074 29.1961524,19.6427344 29.1961524,20 L29.1961524,26 C29.1961524,26.3572656 29.0055535,26.6873926 28.6961524,26.8660254 L23.5,29.8660254 C23.1905989,30.0446582 22.8094011,30.0446582 22.5,29.8660254 L17.3038476,26.8660254 C16.9944465,26.6873926 16.8038476,26.3572656 16.8038476,26 L16.8038476,20 C16.8038476,19.6427344 16.9944465,19.3126074 17.3038476,19.1339746 L22.5,16.1339746 C22.8094011,15.9553418 23.1905989,15.9553418 23.5,16.1339746 Z M15,18 L15,20 L9,20 C7.34314575,20 6,21.3431458 6,23 L6,28 C6,28.5522847 5.55228475,29 5,29 C4.44771525,29 4,28.5522847 4,28 L4,23 C4,20.2385763 6.23857625,18 9,18 L15,18 Z M23,18.155 L18.803,20.577 L18.803,25.422 L23,27.844 L27.196,25.422 L27.196,20.577 L23,18.155 Z M23,21 C24.1045695,21 25,21.8954305 25,23 C25,24.1045695 24.1045695,25 23,25 C21.8954305,25 21,24.1045695 21,23 C21,21.8954305 21.8954305,21 23,21 Z M16,2 C19.8659932,2 23,5.13400675 23,9 C23,12.8659932 19.8659932,16 16,16 C12.1340068,16 9,12.8659932 9,9 C9,5.13400675 12.1340068,2 16,2 Z M16,4 C13.2385763,4 11,6.23857625 11,9 C11,11.7614237 13.2385763,14 16,14 C18.7614237,14 21,11.7614237 21,9 C21,6.23857625 18.7614237,4 16,4 Z" id="&#24418;&#29366;" fill-rule="nonzero" />
    </g>
</svg>

<svg xmlns="http://www.w3.org/2000/svg" viewBox="0 0 32 32"><path fill="currentColor" d="m23.5 16.134 5.196 3a1 1 0 0 1 .5.866v6a1 1 0 0 1-.5.866l-5.196 3a1 1 0 0 1-1 0l-5.196-3a1 1 0 0 1-.5-.866v-6a1 1 0 0 1 .5-.866l5.196-3a1 1 0 0 1 1 0M15 18v2H9a3 3 0 0 0-3 3v5a1 1 0 0 1-2 0v-5a5 5 0 0 1 5-5zm8 .155-4.197 2.422v4.845L23 27.844l4.196-2.422v-4.845zM23 21a2 2 0 1 1 0 4 2 2 0 0 1 0-4M16 2a7 7 0 1 1 0 14 7 7 0 0 1 0-14m0 2a5 5 0 1 0 0 10 5 5 0 0 0 0-10"/></svg>
